X:88
T:The Four Kates
R:jig
C:Paul S. Cranford
O:Cape Breton Island
S:http://www.cranfordpub.com
D:currently unrecorded
B:currently unpublished in book form
Z:psc, (re-formatted,updated 9/17/04)
N:
H:                                                        copyrights Cranford Publications, SOCAN
L:1/8
M:6/8
Q:300
K:F#minor
e|f2 b agf|ecc cBA|B2 c dBd|cAc Bce|
f2 b agf|ecc cBA|B2 c dcB|1cAF F2:|2cAF FAB||
|:cAc BAF|ECE Ace|f2 b agf|1ecc cAB|
cAc BAF|ECE A2 A/B/|cec dcB|cAF FAB:|
[2ecc c(e/f/g)|afb g2 e|fed cAB|cec Beg|aff f2|]
